images/arrow_download.svg

<svg width="16" height="18" viewBox="0 0 16 18" fill="none" xmlns="http://www.w3.org/2000/svg">
<path d="M1 16C0.447715 16 0 16.4477 0 17C0 17.5523 0.447715 18 1 18V16ZM15 18C15.5523 18 16 17.5523 16 17C16 16.4477 15.5523 16 15 16V18ZM9 1C9 0.447715 8.55228 0 8 0C7.44772 0 7 0.447715 7 1H9ZM8 13L7.29289 13.7071C7.68342 14.0976 8.31658 14.0976 8.70711 13.7071L8 13ZM11.7071 10.7071C12.0976 10.3166 12.0976 9.68342 11.7071 9.29289C11.3166 8.90237 10.6834 8.90237 10.2929 9.29289L11.7071 10.7071ZM5.70711 9.29289C5.31658 8.90237 4.68342 8.90237 4.29289 9.29289C3.90237 9.68342 3.90237 10.3166 4.29289 10.7071L5.70711 9.29289ZM1 18H15V16H1V18ZM7 1V13H9V1H7ZM8.70711 13.7071L11.7071 10.7071L10.2929 9.29289L7.29289 12.2929L8.70711 13.7071ZM8.70711 12.2929L5.70711 9.29289L4.29289 10.7071L7.29289 13.7071L8.70711 12.2929Z" fill="white"/>
</svg>

<svg width="16" height="18" fill="none" xmlns="http://www.w3.org/2000/svg"><path d="M1 16a1 1 0 100 2v-2zm14 2a1 1 0 100-2v2zM9 1a1 1 0 00-2 0h2zM8 13l-.707.707a1 1 0 001.414 0L8 13zm3.707-2.293a1 1 0 00-1.414-1.414l1.414 1.414zm-6-1.414a1 1 0 00-1.414 1.414l1.414-1.414zM1 18h14v-2H1v2zM7 1v12h2V1H7zm1.707 12.707l3-3-1.414-1.414-3 3 1.414 1.414zm0-1.414l-3-3-1.414 1.414 3 3 1.414-1.414z" fill="#fff"/></svg>
